modules/zondicons/icons/refresh.svg

<?xml version="1.0" encoding="UTF-8" standalone="no"?>
<svg width="20px" height="20px" viewBox="0 0 20 20" version="1.1" xmlns="http://www.w3.org/2000/svg" xmlns:xlink="http://www.w3.org/1999/xlink">
    <!-- Generator: Sketch 3.7.2 (28276) - http://www.bohemiancoding.com/sketch -->
    <title>refresh</title>
    <desc>Created with Sketch.</desc>
    <defs></defs>
    <g id="Page-1" stroke="none" stroke-width="1" fill="none" fill-rule="evenodd">
        <g id="refresh" fill="#000000">
            <path d="M10,3 C6.13400675,3 3,6.13400675 3,10 C3,11.9329966 3.78350169,13.6829966 5.05025253,14.9497475 L6.46446609,13.5355339 C5.55964406,12.6307119 5,11.3807119 5,10 C5,7.23857625 7.23857625,5 10,5 L10,3 L10,3 Z M14.9497475,5.05025253 C16.2164983,6.31700338 17,8.06700338 17,10 C17,13.8659932 13.8659932,17 10,17 L10,15 C12.7614237,15 15,12.7614237 15,10 C15,8.61928813 14.4403559,7.36928813 13.5355339,6.46446609 L14.9497475,5.05025253 L14.9497475,5.05025253 Z M10,20 L6,16 L10,12 L10,20 L10,20 Z M10,8 L14,4 L10,0 L10,8 L10,8 Z" id="Combined-Shape"></path>
        </g>
    </g>
</svg>

<svg width="20" height="20" viewBox="0 0 20 20" xmlns="http://www.w3.org/2000/svg"><path d="M10 3a7 7 0 0 0-4.95 11.95l1.414-1.414A5 5 0 0 1 10 5V3zm4.95 2.05A7 7 0 0 1 10 17v-2a5 5 0 0 0 3.536-8.536L14.95 5.05zM10 20l-4-4 4-4v8zm0-12l4-4-4-4v8z" fill="#000" fill-rule="evenodd"/></svg>
